X:60
T:Suite in D minor - Prélude
C:Couperin, F.
M:4/4
L:1/8
Q:1/4=66
K:Dmin
|:A2|d4 cd ef|g2 fe d2 A2|B4 Bc de|f2 ed c2 G2|
A4 AB cd|e2 dc B2 F2|G4 GF ED|D4 D2:|

